X:156
%%pagewidth 8in
%%vocalfont Baskerville10Pro 13
T:When the stormy winds do blow
M:C
L:1/8
K:G
%%score 1 2
V:1 clef-treble
V:2 clef-bass octave=-1
V:1
"_f"[B,D]2|[B,G]2[CF]2[DG]2[DA]2|[DGB]4[DFA]2[DFB]2|G2F2E3F&B,4C4|[B,D]6"_p"[BD]2|
w:You Gen-tle-men of Eng-land, That live at home at ease, How
V:2
[G,G]2|[G,G]2[A,A]2[B,B]2[F,F]2|[G,G]4[D,D]2[D,D]2|[E,E]4[C,C]4|[G,DG]3G,G,2G2|
V:1
[B,G]2[B,^DF]2[B,EG]2[A,DA]2|B3B [EA]2[DFB]2&[^DG]2E2x4|[EG]2[=DF]2E3F&x4^C4|D6&D6||D2|
w:lit-tle do you think up-on The dan-gers of the seas, Give
V:2
E2B,2E,2F,2|G,4C2B,2|E4[A,G]4|[DF]6||DE&D2|
V:1
!<(!A3GA2[DB]2&D6x2|c3BA2[DB]2&D6x2|[Cc]2[DB]2[EA]2[CG]2|!<)![A,A]4"^ff"DE[DF]2|
w:ear un-to the mar-i-ners, And they will plain-ly show, All* the
V:2
F3EF2G2&D6D2|A3GF2G2&D6G2|[EG]2[DF]2[CE]2[EG]2|[DF]4[FA]2A2&x4[D,D]2[C,C]2|
V:1
[DG]4[CE]F[DG]2|[CEA]4[DF]G[CDA]2|[B,DB]2[B,EG]2[CEA]2[CDF]2|[DG]6&B,4x2||
w:cares and* the fears When* the storm-y winds do blow.
V:2
[B,,B,G]4[C,CG]2[B,,B,G]2|[A,,A,]4[D,D]2[F,F]2|[G,G]2[E,E]2[C,C]2[D,D]2|[G,,G,]6||

